contributed-vectors/facebook_creator_studio.svg

<?xml version="1.0" encoding="UTF-8" standalone="no"?>
<svg
   xmlns:dc="http://purl.org/dc/elements/1.1/"
   xmlns:cc="http://creativecommons.org/ns#"
   xmlns:rdf="http://www.w3.org/1999/02/22-rdf-syntax-ns#"
   xmlns:svg="http://www.w3.org/2000/svg"
   xmlns="http://www.w3.org/2000/svg"
   xmlns:sodipodi="http://sodipodi.sourceforge.net/DTD/sodipodi-0.dtd"
   xmlns:inkscape="http://www.inkscape.org/namespaces/inkscape"
   viewBox="0 0 192 192"
   version="1.1"
   id="svg16"
   sodipodi:docname="facebook_creator_studio.svg"
   inkscape:version="0.92.4 (5da689c313, 2019-01-14)">
  <metadata
     id="metadata20">
    <rdf:RDF>
      <cc:Work
         rdf:about="">
        <dc:format>image/svg+xml</dc:format>
        <dc:type
           rdf:resource="http://purl.org/dc/dcmitype/StillImage" />
        <dc:title />
      </cc:Work>
    </rdf:RDF>
  </metadata>
  <sodipodi:namedview
     pagecolor="#ffffff"
     bordercolor="#666666"
     borderopacity="1"
     objecttolerance="10"
     gridtolerance="10"
     guidetolerance="10"
     inkscape:pageopacity="0"
     inkscape:pageshadow="2"
     inkscape:window-width="1920"
     inkscape:window-height="1017"
     id="namedview18"
     showgrid="true"
     inkscape:zoom="3.4766083"
     inkscape:cx="66.879928"
     inkscape:cy="98.956808"
     inkscape:window-x="-8"
     inkscape:window-y="-8"
     inkscape:window-maximized="1"
     inkscape:current-layer="svg16"
     inkscape:snap-global="false">
    <inkscape:grid
       type="xygrid"
       id="grid827"
       spacingx="4"
       spacingy="4" />
  </sodipodi:namedview>
  <defs
     id="defs4">
    <style
       id="style2">.a{fill:none;stroke:#b1b5bd;stroke-linecap:round;stroke-linejoin:round;isolation:isolate;opacity:0.63;}</style>
  </defs>
  <rect
     class="a"
     x="20"
     y="32"
     width="152"
     height="140"
     rx="10"
     id="rect6"
     style="opacity:1;isolation:isolate;fill:#9abeff;stroke:none;stroke-linecap:round;stroke-linejoin:round" />
  <path
     style="opacity:1;vector-effect:none;fill:#96dfd3;fill-opacity:1;fill-rule:evenodd;stroke:none;stroke-width:12;stroke-linecap:round;stroke-linejoin:round;stroke-miterlimit:4;stroke-dasharray:none;paint-order:stroke fill markers"
     d="M 30 20 C 24.46 20 20 24.46 20 30 L 20 68 L 172 68 L 172 30 C 172 24.46 167.54 20 162 20 L 30 20 z "
     id="rect879" />
  <rect
     style="opacity:1;vector-effect:none;fill:#ffffff;fill-opacity:1;fill-rule:evenodd;stroke:none;stroke-width:8;stroke-linecap:round;stroke-linejoin:round;stroke-miterlimit:4;stroke-dasharray:none;paint-order:stroke fill markers"
     id="rect829"
     width="152"
     height="12"
     x="20"
     y="60" />
  <path
     style="color:#000000;font-style:normal;font-variant:normal;font-weight:normal;font-stretch:normal;font-size:medium;line-height:normal;font-family:sans-serif;font-variant-ligatures:normal;font-variant-position:normal;font-variant-caps:normal;font-variant-numeric:normal;font-variant-alternates:normal;font-feature-settings:normal;text-indent:0;text-align:start;text-decoration:none;text-decoration-line:none;text-decoration-style:solid;text-decoration-color:#000000;letter-spacing:normal;word-spacing:normal;text-transform:none;writing-mode:lr-tb;direction:ltr;text-orientation:mixed;dominant-baseline:auto;baseline-shift:baseline;text-anchor:start;white-space:normal;shape-padding:0;clip-rule:nonzero;display:inline;overflow:visible;visibility:visible;opacity:1;isolation:auto;mix-blend-mode:normal;color-interpolation:sRGB;color-interpolation-filters:linearRGB;solid-color:#000000;solid-opacity:1;vector-effect:none;fill:#ffffff;fill-opacity:1;fill-rule:nonzero;stroke:none;stroke-width:12;stroke-linecap:round;stroke-linejoin:round;stroke-miterlimit:4;stroke-dasharray:none;stroke-dashoffset:0;stroke-opacity:1;color-rendering:auto;image-rendering:auto;shape-rendering:auto;text-rendering:auto;enable-background:accumulate"
     d="m 44.464844,20 c 0.15055,0.288368 0.324299,0.564016 0.519531,0.824219 L 59.039062,40.083984 44.574219,62.662109 c -1.8261,2.79222 -1.023944,6.537832 1.785502,8.337311 2.809447,1.79948 6.547268,0.96177 8.319967,-1.864654 L 71.357422,43.101562 c 1.335067,-2.084046 1.253625,-4.773977 -0.205078,-6.773437 L 59.236328,20 Z m 39.235117,0 c 0.15055,0.288368 0.324299,0.564016 0.519531,0.824219 L 98.27418,40.083984 83.809336,62.662109 c -1.82613,2.792221 -1.023984,6.537859 1.785478,8.337349 2.809461,1.799489 6.547302,0.96176 8.31999,-1.864692 L 110.59254,43.101562 c 1.33507,-2.084046 1.25363,-4.773978 -0.20508,-6.773437 L 98.471445,20 Z m 37.239489,0 c 0.15055,0.288368 0.3243,0.564016 0.51953,0.824219 l 14.05469,19.259765 -14.46484,22.578125 c -1.82607,2.792219 -1.02391,6.537804 1.78553,8.337274 2.80943,1.79947 6.54723,0.961779 8.31994,-1.864617 l 16.67773,-26.033204 c 1.33507,-2.084046 1.25362,-4.773978 -0.20508,-6.773437 L 135.71094,20 Z"
     id="path831"
     inkscape:connector-curvature="0"
     sodipodi:nodetypes="ccccscccccccccscccccccccsccccc" />
  <path
     style="fill:#ffffff;stroke:#ffffff;stroke-width:12;stroke-linecap:round;stroke-linejoin:round;stroke-miterlimit:4;stroke-dasharray:none;stroke-opacity:1"
     d="m 86.00336,98.230449 0,43.864591 28.33221,-22.14802 z"
     id="path854"
     inkscape:connector-curvature="0"
     sodipodi:nodetypes="cccc" />
</svg>

<svg xmlns="http://www.w3.org/2000/svg" viewBox="0 0 192 192"><rect width="152" height="140" x="20" y="32" rx="10" style="opacity:1;isolation:isolate;fill:#9abeff;stroke:none;stroke-linecap:round;stroke-linejoin:round"/><path d="M30 20c-5.54 0-10 4.46-10 10v38h152V30c0-5.54-4.46-10-10-10H30z" style="opacity:1;vector-effect:none;fill:#96dfd3;fill-opacity:1;fill-rule:evenodd;stroke:none;stroke-width:12;stroke-linecap:round;stroke-linejoin:round;stroke-miterlimit:4;stroke-dasharray:none;paint-order:stroke fill markers"/><path d="M20 60h152v12H20z" style="opacity:1;vector-effect:none;fill:#fff;fill-opacity:1;fill-rule:evenodd;stroke:none;stroke-width:8;stroke-linecap:round;stroke-linejoin:round;stroke-miterlimit:4;stroke-dasharray:none;paint-order:stroke fill markers"/><path d="M44.465 20a6 6 0 0 0 .52.824l14.054 19.26-14.465 22.578a6 6 0 1 0 10.106 6.473l16.677-26.033a6 6 0 0 0-.205-6.774L59.236 20ZM83.7 20a6 6 0 0 0 .52.824l14.054 19.26L83.81 62.662a6 6 0 1 0 10.106 6.473l16.678-26.033a6 6 0 0 0-.206-6.774L98.471 20Zm37.24 0a6 6 0 0 0 .519.824l14.055 19.26-14.465 22.578a6 6 0 1 0 10.105 6.473l16.678-26.033a6 6 0 0 0-.205-6.774L135.71 20Z" style="color:#000;font-style:normal;font-variant:normal;font-weight:400;font-stretch:normal;font-size:medium;line-height:normal;font-family:sans-serif;font-variant-ligatures:normal;font-variant-position:normal;font-variant-caps:normal;font-variant-numeric:normal;font-variant-alternates:normal;font-feature-settings:normal;text-indent:0;text-align:start;text-decoration:none;text-decoration-line:none;text-decoration-style:solid;text-decoration-color:#000;letter-spacing:normal;word-spacing:normal;text-transform:none;writing-mode:lr-tb;direction:ltr;text-orientation:mixed;dominant-baseline:auto;baseline-shift:baseline;text-anchor:start;white-space:normal;shape-padding:0;clip-rule:nonzero;display:inline;overflow:visible;visibility:visible;opacity:1;isolation:auto;mix-blend-mode:normal;color-interpolation:sRGB;color-interpolation-filters:linearRGB;solid-color:#000;solid-opacity:1;vector-effect:none;fill:#fff;fill-opacity:1;fill-rule:nonzero;stroke:none;stroke-width:12;stroke-linecap:round;stroke-linejoin:round;stroke-miterlimit:4;stroke-dasharray:none;stroke-dashoffset:0;stroke-opacity:1;color-rendering:auto;image-rendering:auto;shape-rendering:auto;text-rendering:auto;enable-background:accumulate"/><path d="M86.003 98.23v43.865l28.333-22.148z" style="fill:#fff;stroke:#fff;stroke-width:12;stroke-linecap:round;stroke-linejoin:round;stroke-miterlimit:4;stroke-dasharray:none;stroke-opacity:1"/></svg>
